X:1
T:Title
%%score { ( 1 3 ) | ( 2 4 ) }
L:1/8
M:4/4
K:C
V:1 treble nm="Grand Piano"
V:3 treble 
V:2 bass 
V:4 bass 
V:1
 z4 z2[Q:1/4=100] EE | [EG]2 [_E^F][=EG] [EA]2 E2 | G2 F4 DE | [DF]2 [EG]2 [FA]2 [B,FB]2 | %4
 [FA]2 G4 E[DF] | [EG]2 [Ec]2 [FB]2 [Gc]2 | [GB]2 A4 AA | [^FA]2 [FA]2 [FB]2 [Fc]2 | %8
 [DFB]6 [B,FA][B,FG] | [Ec]3 [Ed] [Fc]2 [FA]2 | [FA]2 [EG]4 EE | G2 D2 [B,G]2 [B,A]2 | E6 EE | %13
 D2 E2 F2 [D^F]2 | G2 A2 [DB]2 [DG][DG] | [Gc]3 c c2 [FB]2 | [Ec]6 z2 | [EG]3 [EG] [CE]2 [DF]2 | %18
 [EG]2 [Ec]4 [Gc]2 | [Fc]4 [FA]4 | [EG]6 z2 | [EG]3 [EG] [CE]2 [DF]2 | [EG]2 [Ec]4 [GB]2 | %23
 [FA]4 [^Fd]4 | [Fd]6 z2 | [Ge]3 [Ge] [Fd]2 [Ec]2 | [Ge]2 [Ge]4 [Gd]2 | [Ac]4 A4 | c4 B2 A2 | %29
 G3 [FG] [EG]2 G2 | A2 c4 c2 | e4 d4 |[M:3/4] [Ec]6 |] %33
V:2
 z4 z2 [C,G,C][C,G,C] | [C,C]2 [C,C]2 [C,C]2 [C,G,C]2 | [D,G,B,]2 [D,G,B,]4 [G,B,][G,C] | %3
 [G,,G,]2 [G,,G,]2 [G,,G,]2 G,,2 | z2 E4 [C,G,C][C,G,] | [C,C]2 [C,G,]2 [D,G,]2 [E,C]2 | %6
 [F,C]2 [F,CF]4 [F,CF][F,CF] | [D,C]2 [D,C]2 [D,B,]2 [D,A,]2 | G,,6 G,G, | %9
 [C,G,]3 [C,^G,] [C,A,]2 [C,C]2 | [C,C]2 [C,C]4 [C,G,C][C,G,C] | %11
 [D,G,B,]2 [G,B,]2 [G,,F,]2 [G,,F,]2 | [C,G,C]6 [C,G,C][C,G,C] | %13
 [F,A,C]2 [E,A,^C]2 [D,A,D]2 [C,A,]2 | [B,,G,]2 [A,,^F,]2 [G,,G,]2 [=F,B,][F,B,] | %15
 [E,C]3 [F,A,F] [G,E]2 [G,,G,]2 | [C,G,]6 z2 | [C,C]3 [C,C] [C,G,]2 [C,G,]2 | %18
 [C,C]2 [C,G,]4 [E,C]2 | [F,A,]4 [F,C]4 | [C,C]6 z2 | [C,C]3 [C,C] [C,G,]2 [C,G,]2 | %22
 [C,C]2 [C,C]4 [E,C]2 | [F,C]4 [D,C]4 | [G,B,]6 z2 | [C,C]3 [C,C] [C,G,]2 [C,G,]2 | %26
 [C,C]2 [C,C]4 [E,C]2 | [F,C]4 [F,CF]4 | [F,A,F]4 [F,F]2- [F,CF]2 | [E,C]3 [D,B,] [C,C]2 [E,C]2 | %30
 [F,CF]2 [F,A,F]4 [^G,C^F]2 | [G,CG]4 [G,F]4 |[M:3/4][K:bass] [C,G,]6 |] %33
V:3
 x8 | x8 | x8 | x8 | C6 z2 | x8 | x8 | x8 | x8 | x8 | x8 | x8 | x8 | x8 | D4 z4 | x8 | x8 | x8 | %18
 x8 | x8 | x8 | x8 | x8 | x8 | x8 | x8 | x8 | x8 | x8 | x8 | x8 | x8 |[M:3/4] x6 |] %33
V:4
 x8 | x8 | x8 | x8 | C,6 z2 | x8 | x8 | x8 | x8 | x8 | x8 | x8 | x8 | x8 | x8 | x8 | x8 | x8 | x8 | %19
 x8 | x8 | x8 | x8 | x8 | x8 | x8 | x8 | x8 | z4 A,2 z2 | x8 | x8 | x8 |[M:3/4][K:bass] x6 |] %33

